X: 42445
T: Western, The
R: hornpipe
M: 4/4
K: Cmajor
e>c (3ccc G>cE>c|e>c (3ccc G>cE>c|A>F (3FFF C>FA,>F|(3ABc B>d c>eg>f|
e>c 3cBc G>^FG>c|e>c (3ccc G>c (3EGc|A>F (3FFF C>FA,>F|(3ABc B>d c2:|
(3eee c>e g>ag>e|(3fff d>f a2 g>f|e2 c>e a>gf>e|d>cB<A G2 g>f|
e2 (3cde g2 (3gfe|f2 (3def a2 g>f|e>g (3ggg a>fd<B|(3ccc c>B c2:|

